img/svg/square-icon.svg

<svg width="56" height="56" fill="none" xmlns="http://www.w3.org/2000/svg"><rect width="56" height="56" rx="12" fill="#DCF2ED"/><path d="M17 25h2v-2h-2v2Zm0 4h2v-2h-2v2Zm0-8h2v-2c-1.1 0-2 .9-2 2Zm8 16h2v-2h-2v2Zm-8-4h2v-2h-2v2Zm2 4v-2h-2c0 1.1.9 2 2 2Zm18-18h-8v6h10v-4c0-1.1-.9-2-2-2Zm0 14h2v-2h-2v2ZM25 21h2v-2h-2v2Zm-4 16h2v-2h-2v2Zm0-16h2v-2h-2v2Zm16 16c1.1 0 2-.9 2-2h-2v2Zm0-8h2v-2h-2v2Zm-8 8h2v-2h-2v2Zm4 0h2v-2h-2v2Z" fill="#20484F"/></svg>

<svg width="56" height="56" viewBox="0 0 56 56" fill="none" xmlns="http://www.w3.org/2000/svg">
<rect width="56" height="56" rx="12" fill="#DCF2ED"/>
<path d="M17 25H19V23H17V25ZM17 29H19V27H17V29ZM17 21H19V19C17.9 19 17 19.9 17 21ZM25 37H27V35H25V37ZM17 33H19V31H17V33ZM19 37V35H17C17 36.1 17.9 37 19 37ZM37 19H29V25H39V21C39 19.9 38.1 19 37 19ZM37 33H39V31H37V33ZM25 21H27V19H25V21ZM21 37H23V35H21V37ZM21 21H23V19H21V21ZM37 37C38.1 37 39 36.1 39 35H37V37ZM37 29H39V27H37V29ZM29 37H31V35H29V37ZM33 37H35V35H33V37Z" fill="#20484F"/>
</svg>
